packages/dnb-eufemia/assets/icons/volume_on.svg

<svg width="16" height="16" viewBox="0 0 16 16" fill="none" xmlns="http://www.w3.org/2000/svg">
<path d="M14.316 10.504C15.228 9.07463 15.228 7.19746 14.316 5.76808M12.3809 9.63087C13.0679 8.78527 13.0679 7.53819 12.3809 6.69259M9.45199 3.10528C9.11952 2.9391 8.70136 2.9769 8.40408 3.2L4.00165 6.00154H2.00055C1.45558 6.00154 1 6.45713 1 7.00209V9.00319C1 9.54816 1.45558 10.0037 2.00055 10.0037H4.00165L8.40408 12.8053C8.70138 13.0283 9.11947 13.066 9.45187 12.8998C9.78426 12.7336 10.005 12.3765 10.005 12.0048V4.00044C10.0051 3.62875 9.78441 3.27155 9.45199 3.10528Z" stroke="black" stroke-width="1.5" stroke-linecap="round" stroke-linejoin="round"/>
</svg>

<svg width="16" height="16" viewBox="0 0 16 16" fill="none" xmlns="http://www.w3.org/2000/svg"><path d="M14.316 10.504a4.44 4.44 0 0 0 0-4.736m-1.935 3.863a2.352 2.352 0 0 0 0-2.938M9.452 3.105a1.017 1.017 0 0 0-1.048.095L4.002 6.002H2a1.01 1.01 0 0 0-1.001 1v2.001c0 .545.456 1 1 1h2.002l4.402 2.802c.297.223.715.261 1.048.095.332-.166.553-.524.553-.895V4c0-.371-.22-.728-.553-.895Z" stroke="#000" stroke-width="1.5" stroke-linecap="round" stroke-linejoin="round"/></svg>
